assets/icons/utility/open_folder.svg

<?xml version="1.0"?><svg xmlns="http://www.w3.org/2000/svg" width="52" height="52" viewBox="0 0 52 52"><g fill="#fff"><path d="m46 14h-22.7c-1.4 0-2.7-0.8-3.5-2l-3.5-6c-0.7-1.2-2-2-3.5-2h-6.8c-2.2 0-4 1.8-4 4v36c0 2.2 1.8 4 4 4h40c2.2 0 4-1.8 4-4v-26c0-2.2-1.8-4-4-4z m0-8h-24.1c-0.4 0-0.6 0.4-0.4 0.7l1.6 2.7c0.2 0.4 0.5 0.6 0.9 0.6h22c1.1 0 2.2 0.2 3.1 0.6 0.4 0.2 0.9-0.1 0.9-0.6 0-2.2-1.8-4-4-4z"></path></g></svg>

<svg xmlns="http://www.w3.org/2000/svg" x="0px" y="0px"
	 width="52px" height="52px" viewBox="0 0 52 52" enable-background="new 0 0 52 52" xml:space="preserve">
<g>
	<path fill="#FFFFFF" d="M46,14H23.3c-1.4,0-2.7-0.8-3.5-2l-3.5-6c-0.7-1.2-2-2-3.5-2H6C3.8,4,2,5.8,2,8v8v28c0,2.2,1.8,4,4,4h40
		c2.2,0,4-1.8,4-4V18C50,15.8,48.2,14,46,14z"/>
	<path fill="#FFFFFF" d="M46,6H21.9c-0.4,0-0.6,0.4-0.4,0.7l1.6,2.7C23.3,9.8,23.6,10,24,10h22c1.1,0,2.2,0.2,3.1,0.6
		c0.4,0.2,0.9-0.1,0.9-0.6V10C50,7.8,48.2,6,46,6z"/>
</g>
</svg>
